X:612
T:Tae the Weavers Gin Ye Gang
B:Loesberg, Scottish Songs of Robert Burns
Z:Nigel Gatherer
L:1/8
M:2/4
K:D
d/B/ | AF  FE/D/ | GF  Fd/B/ | AF F>E       | F3
d/B/ | AF  FE/D/ | FE  E>F   | AF F>E       | F3 ||
E/E/ | A>B cd    | e>f eE/E/ | AB cd        | e3
f/e/ | dB  cB/A/ | Bc  de/e/ | fF F/^G/F/E/ | F3 |]
